X:70
T:GB/6a/70 Fair Maid Walking (II)
%%VWML:GB-6a-70-0
F:http://www.vwml.org/record/GB/6a/70
C:Transcribed by Simon Furey and Lewis Jones
L:1/4
M:3/2
I:linebreak $
K:Ddor
D | F G A2 G3/2 E/ | F D E D- D D | G F G2 A3/2 B/ | c B A3 G |$ A B/c/ d2 c A | c A G F- F D | A B c2 E/F/ G | F E D3 |]

